FINK
CUT[ES KAMEN GRUENE VOEGELEIN]
REG[Europa, Mitteleuropa, Deutschland]
KEY[F0273  16  D 2/4]
MEL[-5_  -3_.-2-3_-4_  -5_.-6-5_
    -5_  -6_.-71_2_  1__-5_
    -5_  -3_.-2-3_-4_  -5_.-6-5_
    -5_  -6_.-71_2_  1__-5_
    3_  2_.1-7_-6_  -7__-5_
    1_  -7_.-6-5_-4#_  -5__-2_
    -4_  -3_-4_-3_-4_  -5_-6_-7_
    1_  2__-7__  1__0_ //] >>
FCT[Jugend - Lied, Jahreszeiten, Sommer, Herbst]
